X: 73
T: THE DEAR IRISH BOY
B: O'Neill's 73
M: 3/4
L: 1/8
Z: Transcribed by John Chambers <jc@trillian.mit.edu>
N: "Slow and tenderly"
N: "Collected by J.O'Neill"
K:Dm
(D>E) \
|F3 F ~ED|A2 G3 AGE|D2 D2 ~ED|D2 C2 DE \
|F2 E3 FED|E2 A2 AG|F2 D2 .E2|D4 DE|
|F3 F EFED|A2 G3 AGE|D2 D2 ED|D2 C2 DE \
|F3 G A/B/c|d4 AG|F3 D EA|D4||Ac|
|d2 A2 .A2|d2 A2 AG|F2 D2 EFED|D2 C2 AG \
|A2 d2 de|f2 e2 dc|A2 d2 fe2|d4 de|
|f2 e2 d2|d2 A2 AG|F2 D2 ED|D2 C2 DE \
|F3 G A/B/c|d4 AG|F3 D EA|D4||
